gnome-shell/src/message-indicator-symbolic.svg

<svg width="16" height="16" version="1.1" viewBox="0 0 4.2333 4.2333" xmlns="http://www.w3.org/2000/svg">
 <g fill="#808080">
  <path transform="scale(.26458)" d="m6.3867 0.0097656c-1.5434 0.35862-2.6676 1.1757-3.3672 2.3125-0.6996 1.1368-0.98846 2.5588-1.0195 4.1641l1 0.019531c0.028993-1.4955 0.30424-2.7391 0.87109-3.6602 0.56686-0.92108 1.4114-1.5541 2.7422-1.8633l-0.22656-0.97266zm3.2266 0-0.22656 0.97266c1.3308 0.30921 2.1753 0.94219 2.7422 1.8633 0.56687 0.92108 0.8421 2.1647 0.87109 3.6602l1-0.019531c-0.031106-1.6052-0.31998-3.0273-1.0195-4.1641-0.6996-1.1368-1.8238-1.9539-3.3672-2.3125zm-1.6133 1.9902c-1.5265 0-2.5439 0.78113-3.0723 1.8379-0.52838 1.0568-0.67496 2.3531-0.80078 3.6113-0.12582 1.2582-0.22877 2.4862-0.5332 3.3164-0.15221 0.41511-0.3471 0.71969-0.58789 0.91797-0.24078 0.19829-0.53591 0.31641-1.0059 0.31641v1h12v-1c-0.46991 0-0.76506-0.11812-1.0059-0.31641-0.24078-0.19829-0.43565-0.50286-0.58789-0.91797-0.30442-0.83022-0.40738-2.0582-0.5332-3.3164-0.12582-1.2582-0.27241-2.5546-0.80078-3.6113-0.52838-1.0568-1.5457-1.8379-3.0723-1.8379zm0 1c1.2235 0 1.7686 0.46688 2.1777 1.2852 0.40914 0.81824 0.57506 2.0219 0.69922 3.2637 0.12418 1.2418 0.2087 2.5159 0.5918 3.5605 0.12675 0.34569 0.36923 0.60917 0.58789 0.89062h-8.1133c0.21864-0.28149 0.46112-0.54496 0.58789-0.89062 0.3831-1.0448 0.4676-2.3188 0.5918-3.5605 0.12418-1.2418 0.2901-2.4454 0.69922-3.2637 0.40914-0.81824 0.95429-1.2852 2.1777-1.2852zm-2 11c0.01251 1.1086 0.91479 2 2.0234 2 1.1087 0 2.0109-0.89138 2.0234-2h-4.0469z" style="font-feature-settings:normal;font-variant-alternates:normal;font-variant-caps:normal;font-variant-east-asian:normal;font-variant-ligatures:normal;font-variant-numeric:normal;font-variant-position:normal;font-variation-settings:normal;inline-size:0;isolation:auto;mix-blend-mode:normal;shape-margin:0;shape-padding:0;text-decoration-color:#000000;text-decoration-line:none;text-decoration-style:solid;text-indent:0;text-orientation:mixed;text-transform:none;white-space:normal"/>
 </g>
</svg>

<svg width="16" height="16" viewBox="0 0 4.233 4.233" xmlns="http://www.w3.org/2000/svg"><path transform="scale(.26458)" d="M6.387.01C4.843.368 3.719 1.185 3.02 2.322 2.32 3.46 2.03 4.882 2 6.486l1 .02c.029-1.496.304-2.74.871-3.66.567-.921 1.411-1.554 2.742-1.864L6.387.01zm3.226 0-.226.972c1.33.31 2.175.943 2.742 1.864.567.92.842 2.164.871 3.66l1-.02c-.031-1.605-.32-3.027-1.02-4.164C12.28 1.185 11.158.368 9.614.01zM8 2c-1.526 0-2.544.781-3.072 1.838-.529 1.057-.675 2.353-.801 3.611s-.229 2.486-.533 3.317c-.152.415-.347.72-.588.918C2.766 11.882 2.47 12 2 12v1h12v-1c-.47 0-.765-.118-1.006-.316-.24-.199-.436-.503-.588-.918-.304-.83-.407-2.059-.533-3.317-.126-1.258-.272-2.554-.8-3.611C10.542 2.78 9.525 2 8 2zm0 1c1.224 0 1.769.467 2.178 1.285.409.818.575 2.022.699 3.264s.209 2.516.592 3.56c.126.346.369.61.588.891H3.943c.219-.282.461-.545.588-.89.383-1.045.468-2.32.592-3.561.124-1.242.29-2.446.7-3.264C6.23 3.467 6.776 3 8 3zM6 14a2.023 2.023 0 0 0 4.047 0H6z" style="font-feature-settings:normal;font-variant-alternates:normal;font-variant-caps:normal;font-variant-east-asian:normal;font-variant-ligatures:normal;font-variant-numeric:normal;font-variant-position:normal;font-variation-settings:normal;inline-size:0;isolation:auto;mix-blend-mode:normal;shape-margin:0;shape-padding:0;text-decoration-color:#000;text-decoration-line:none;text-decoration-style:solid;text-indent:0;text-orientation:mixed;text-transform:none;white-space:normal" fill="gray"/></svg>
